Yaru++/apps/16/google-keep.svg

<svg height="16" width="16" xmlns="http://www.w3.org/2000/svg">
  <path d="m7.6923144.50000265a5.191676 5.191676 0 0 0 -2.5961541 9.68798535v4.158161h1.1538461v1.153851h3.1730779v-1.153851h1.1538467v-4.337008a5.1920019 5.1920019 0 0 0 -2.8846166-9.50913835zm1.7307699 12.69231135h-3.1730779v-1.153851h3.1730779zm0-3.8524168v1.5447148h-3.1730779v-1.4206748a4.0393111 4.0393111 0 1 1 3.1730779-.124084z" fill="#808080" stroke-width=".144231"/>
</svg>

<?xml version="1.0" encoding="UTF-8" standalone="no"?>
<svg
   xmlns:dc="http://purl.org/dc/elements/1.1/"
   xmlns:cc="http://creativecommons.org/ns#"
   xmlns:rdf="http://www.w3.org/1999/02/22-rdf-syntax-ns#"
   xmlns:svg="http://www.w3.org/2000/svg"
   xmlns="http://www.w3.org/2000/svg"
   xmlns:sodipodi="http://sodipodi.sourceforge.net/DTD/sodipodi-0.dtd"
   xmlns:inkscape="http://www.inkscape.org/namespaces/inkscape"
   width="16"
   height="16"
   version="1.1"
   id="svg9"
   sodipodi:docname="google-keep-symbolic.svg"
   inkscape:version="0.92.3 (2405546, 2018-03-11)">
  <metadata
     id="metadata13">
    <rdf:RDF>
      <cc:Work
         rdf:about="">
        <dc:format>image/svg+xml</dc:format>
        <dc:type
           rdf:resource="http://purl.org/dc/dcmitype/StillImage" />
        <dc:title></dc:title>
      </cc:Work>
    </rdf:RDF>
  </metadata>
  <sodipodi:namedview
     pagecolor="#ffffff"
     bordercolor="#666666"
     borderopacity="1"
     objecttolerance="10"
     gridtolerance="10"
     guidetolerance="10"
     inkscape:pageopacity="0"
     inkscape:pageshadow="2"
     inkscape:window-width="1547"
     inkscape:window-height="1009"
     id="namedview11"
     showgrid="false"
     inkscape:zoom="14.75"
     inkscape:cx="-4.1016949"
     inkscape:cy="8"
     inkscape:window-x="0"
     inkscape:window-y="34"
     inkscape:window-maximized="0"
     inkscape:current-layer="svg9" />
  <defs
     id="defs3">
    <style
       id="current-color-scheme"
       type="text/css">
   .ColorScheme-Text { color:#5c616c; } .ColorScheme-Highlight { color:#5294e2; } .ColorScheme-ButtonBackground { color:#808080; }
  </style>
  </defs>
  <path
     d="M 7.6923144,0.50000265 A 5.191676,5.191676 0 0 0 5.0961603,10.187988 v 4.158161 H 6.2500064 V 15.5 H 9.4230843 V 14.346149 H 10.576931 V 10.009141 A 5.1920019,5.1920019 0 0 0 7.6923144,0.50000265 Z M 9.4230843,13.192314 H 6.2500064 v -1.153851 h 3.1730779 z m 0,-3.8524168 V 10.884612 H 6.2500064 V 9.4639372 a 4.0393111,4.0393111 0 1 1 3.1730779,-0.124084 z"
     style="fill:#808080;fill-opacity:1;stroke-width:0.14423077"
     id="path48"
     inkscape:connector-curvature="0" />
</svg>
